Obsidian/actions/24s/selection-move-to-layer-below.svg

<svg height="24" viewBox="0 0 24 24" width="24" xmlns="http://www.w3.org/2000/svg"><path d="m1 1 3 4h8v4.03125l-1.34375-1.4375-.65625.6875 2.3125 2.5.1875.21875.1875-.21875 2.3125-2.5-.65625-.6875-1.34375 1.4375v-4.03125l-3-4zm0 10 3 4h9l-3-4z" fill="#bebebe" transform="translate(4 4)"/></svg>

<svg xmlns="http://www.w3.org/2000/svg" width="24" height="24" viewBox="0 0 24 24">
 <defs>
  <style id="current-color-scheme" type="text/css">
   .ColorScheme-Text { color:#bebebe; } .ColorScheme-Highlight { color:#4285f4; }
  </style>
 </defs>
 <path style="fill:currentColor" class="ColorScheme-Text" d="M 1 1 L 4 5 L 12 5 L 12 9.03125 L 10.65625 7.59375 L 10 8.28125 L 12.3125 10.78125 L 12.5 11 L 12.6875 10.78125 L 15 8.28125 L 14.34375 7.59375 L 13 9.03125 L 13 5 L 10 1 L 1 1 z M 1 11 L 4 15 L 13 15 L 10 11 L 1 11 z" transform="translate(4 4)"/>
</svg>
